svg/color/wld.svg

<svg width="64" height="65" viewBox="0 0 64 65" fill="none" xmlns="http://www.w3.org/2000/svg">
<g clip-path="url(#clip0_27960_1853)">
<rect y="0.303711" width="64" height="64" rx="32" fill="white"/>
<path d="M32 -1C50.2254 -1 65 13.7746 65 32C65 50.2254 50.2254 65 32 65C13.7746 65 -1 50.2254 -1 32C-0.999998 13.7746 13.7746 -0.999998 32 -1ZM5.36245 35.093C6.89599 48.445 18.2371 58.814 32 58.814C39.6297 58.814 46.5152 55.6273 51.3981 50.5123H31.7006C22.5306 50.5123 14.9178 43.8445 13.4457 35.093H5.36245ZM19.7657 35.093C21.1381 40.4034 25.9614 44.3262 31.7006 44.3262H55.8191C57.2823 41.5044 58.2589 38.3897 58.6376 35.093H19.7657ZM31.7054 19.6738H31.7006C25.9614 19.6738 21.1382 23.5965 19.7657 28.9069H58.6376C58.2572 25.5954 57.2735 22.4675 55.7993 19.6357L31.7054 19.6738ZM32 5.18598C18.2372 5.18598 6.89615 15.5549 5.36255 28.9069H13.4457C14.9176 20.157 22.5279 13.4901 31.6956 13.4877L51.3682 13.4566C46.4872 8.35981 39.6142 5.18598 32 5.18598Z" fill="black"/>
</g>
<rect x="0.5" y="0.803711" width="63" height="63" rx="31.5" stroke="white" stroke-opacity="0.15"/>
<defs>
<clipPath id="clip0_27960_1853">
<rect y="0.303711" width="64" height="64" rx="32" fill="white"/>
</clipPath>
</defs>
</svg>

<svg xmlns="http://www.w3.org/2000/svg" width="64" height="65" fill="none" viewBox="0 0 64 65"><g clip-path="url(#wld_svg-a)"><rect width="64" height="64" y=".304" fill="#fff" rx="32"/><path fill="#000" d="M32-1c18.225 0 33 14.775 33 33S50.225 65 32 65-1 50.225-1 32 13.775-1 32-1M5.362 35.093C6.896 48.445 18.237 58.814 32 58.814c7.63 0 14.515-3.187 19.398-8.302H31.701c-9.17 0-16.783-6.668-18.255-15.419zm14.404 0c1.372 5.31 6.195 9.233 11.935 9.233h24.118a26.6 26.6 0 0 0 2.819-9.233zm11.94-15.42H31.7c-5.74 0-10.563 3.924-11.935 9.234h38.872a26.6 26.6 0 0 0-2.839-9.271zM32 5.187c-13.763 0-25.104 10.369-26.637 23.72h8.083c1.472-8.749 9.082-15.416 18.25-15.418l19.672-.031C46.488 8.36 39.614 5.186 32 5.186"/></g><rect width="63" height="63" x=".5" y=".804" stroke="#fff" stroke-opacity=".15" rx="31.5"/><defs><clipPath id="wld_svg-a"><rect width="64" height="64" y=".304" fill="#fff" rx="32"/></clipPath></defs></svg>
